src/img/check.svg

<svg width="51" height="50" viewBox="0 0 51 50" fill="none" xmlns="http://www.w3.org/2000/svg">
<path d="M23.979 8.34766C26.2653 8.34766 28.5292 8.78538 30.6414 9.63582C32.7537 10.4863 34.6729 11.7328 36.2896 13.3042C37.9062 14.8756 39.1886 16.7412 40.0635 18.7943C40.9384 20.8475 41.3887 23.048 41.3887 25.2704C41.3887 27.4927 40.9384 29.6932 40.0635 31.7464C39.1886 33.7995 37.9062 35.6651 36.2895 37.2365C34.6729 38.8079 32.7536 40.0544 30.6414 40.9049C28.5292 41.7553 26.2653 42.193 23.979 42.193L23.979 25.2703V8.34766Z" fill="#6981F1" fill-opacity="0.2"/>
<path d="M25.1112 36.218L12.9961 25.1216L15.2719 23.0372L24.2293 31.2398L33.7661 13.7695L36.6469 15.0885L25.1112 36.218Z" fill="#4361EE"/>
<path d="M24.663 43.9234C19.0236 43.9197 13.7559 41.3913 10.2083 36.9868L9.26631 37.7486C13.0417 42.4381 18.6483 45.1291 24.6521 45.1364C24.6612 45.1364 24.6685 45.1364 24.6758 45.1364C35.5901 45.1254 44.4673 36.2158 44.4673 25.2693C44.4673 14.3136 35.5774 5.40039 24.6503 5.40039C14.3408 5.40039 5.84806 13.3363 4.92062 23.4351L4.57077 22.9218L3.57227 23.605L5.34881 26.2156L7.59727 23.9649L6.74271 23.1063L6.11409 23.7347C6.89394 14.1638 14.9075 6.61525 24.6503 6.61525C34.9086 6.61525 43.2557 14.9841 43.2557 25.2693C43.2557 35.5509 34.9159 43.9179 24.663 43.9234Z" fill="#607BF8"/>
<path d="M49.4723 22.4397L48.8054 23.4207C47.858 10.7716 37.2989 0.769531 24.4459 0.769531C10.9715 0.769531 0.00976562 11.7599 0.00976562 25.2695C0.00976562 38.7682 10.9551 49.7531 24.4167 49.7695C24.4276 49.7695 24.4368 49.7695 24.4459 49.7695C31.8472 49.7604 38.7621 46.441 43.4175 40.659L42.4755 39.8972C38.0478 45.396 31.4719 48.5528 24.4313 48.5565C11.6311 48.5474 1.21964 38.105 1.21964 25.2695C1.21964 12.4285 11.6384 1.98257 24.4459 1.98257C36.7414 1.98257 46.8303 11.6138 47.6156 23.7459L46.557 22.6864L45.7024 23.545L48.3681 26.2122L50.4727 23.1193L49.4723 22.4397Z" fill="#4361EE"/>
</svg>

<svg xmlns="http://www.w3.org/2000/svg" width="51" height="50" fill="none" xmlns:v="https://vecta.io/nano"><path d="M23.979 8.348c2.286 0 4.55.438 6.662 1.288s4.031 2.097 5.648 3.668a16.9 16.9 0 0 1 3.774 5.49c.875 2.053 1.325 4.254 1.325 6.476s-.45 4.423-1.325 6.476a16.9 16.9 0 0 1-3.774 5.49c-1.617 1.571-3.536 2.818-5.648 3.668s-4.376 1.288-6.662 1.288V25.27 8.348z" fill="#6981f1" fill-opacity=".2"/><path d="M25.111 36.218L12.996 25.122l2.276-2.084 8.957 8.203 9.537-17.47 2.881 1.319-11.536 21.13z" fill="#4361ee"/><path d="M24.663 43.923c-5.639-.004-10.907-2.532-14.455-6.937l-.942.762c3.775 4.689 9.382 7.38 15.386 7.388h.024c10.914-.011 19.792-8.921 19.792-19.867 0-10.956-8.89-19.869-19.817-19.869-10.31 0-18.802 7.936-19.73 18.035l-.35-.513-.999.683 1.777 2.611 2.248-2.251-.855-.859-.629.628c.78-9.571 8.793-17.119 18.536-17.119 10.258 0 18.605 8.369 18.605 18.654s-8.34 18.649-18.593 18.654z" fill="#607bf8"/><path d="M49.472 22.44l-.667.981C47.858 10.772 37.299.77 24.446.77 10.972.77.01 11.76.01 25.27c0 13.499 10.945 24.484 24.407 24.5h.029c7.401-.009 14.316-3.328 18.972-9.111l-.942-.762c-4.428 5.499-11.004 8.656-18.044 8.659C11.631 48.547 1.22 38.105 1.22 25.27c0-12.841 10.419-23.287 23.226-23.287 12.295 0 22.384 9.631 23.17 21.763l-1.059-1.059-.855.859 2.666 2.667 2.105-3.093-1-.68z" fill="#4361ee"/></svg>
